public/svg/phone-white.svg

<svg width="18" height="18" viewBox="0 0 18 18" fill="none" xmlns="http://www.w3.org/2000/svg">
<path d="M14.3333 11.3333C13.5333 11.3333 12.6667 11.2 11.9333 10.9333H11.7333C11.5333 10.9333 11.4 11 11.2667 11.1333L9.8 12.6C7.93333 11.6 6.33333 10.0667 5.4 8.2L6.86667 6.73333C7.06667 6.53333 7.13333 6.26667 7 6.06667C6.8 5.33333 6.66667 4.46667 6.66667 3.66667C6.66667 3.33333 6.33333 3 6 3H3.66667C3.33333 3 3 3.33333 3 3.66667C3 9.93333 8.06667 15 14.3333 15C14.6667 15 15 14.6667 15 14.3333V12C15 11.6667 14.6667 11.3333 14.3333 11.3333ZM4.33333 4.33333H5.33333C5.4 4.93333 5.53333 5.53333 5.66667 6.06667L4.86667 6.86667C4.6 6.06667 4.4 5.2 4.33333 4.33333ZM13.6667 13.6667C12.8 13.6 11.9333 13.4 11.1333 13.1333L11.9333 12.3333C12.4667 12.4667 13.0667 12.6 13.6667 12.6V13.6667Z" fill="white"/>
</svg>

<svg xmlns="http://www.w3.org/2000/svg" width="18" height="18" fill="none"><path fill="#fff" d="M14.333 11.333c-.8 0-1.666-.133-2.4-.4h-.2c-.2 0-.333.067-.466.2L9.8 12.6c-1.867-1-3.467-2.533-4.4-4.4l1.467-1.467c.2-.2.266-.466.133-.666a9.5 9.5 0 0 1-.333-2.4C6.667 3.333 6.333 3 6 3H3.667C3.333 3 3 3.333 3 3.667A11.324 11.324 0 0 0 14.333 15c.334 0 .667-.333.667-.667V12c0-.333-.333-.667-.667-.667m-10-7h1c.067.6.2 1.2.334 1.734l-.8.8C4.6 6.067 4.4 5.2 4.333 4.333m9.334 9.334a10.7 10.7 0 0 1-2.534-.534l.8-.8c.534.134 1.134.267 1.734.267z"/></svg>
